X: 0
T: Noel Nouvelet
Z: Traditional 15th Century French
Z: MIDI Sequence Copyright © 1996 by Paul Erickson
L: 1/4
M: 4/4
Q: 1/4=91
V: P1 name="untitled"
%%MIDI program 1 68
V: P2 name="Staff"
%%MIDI program 2 74
V: P3 name="Staff-2"
%%MIDI program 3 25
V: P4 name="Staff-3"
%%MIDI program 4 25
V: P5 name="Staff-4"
%%MIDI program 5 70
V: P6 name="Staff-5"
%%MIDI program 6 1
K: C
[V: P1] z3/z3/8 ^G/8- G =G/F/ | G3/ C/ ^G/G/ =G/F/ | G2z2 | z4 |z2 F/c/ d/^A/ | c ^G ^A/A/4c/4 G/=G/ | F2 F/c/ d/^A/ | c ^G ^A/A/4c/4 G/=G/ | F2 ^G =G/F/ | G3/ C/ ^G/G/ =G/F/ | G2 F/c/ d/^A/ | c ^G ^A/A/8c3/8 G/=G/ | F2 F/c/ d/^A/- | ^A/8c3/4-c/8 c/8^G3/4-G/8z/8 A3/8A/4c/4 G/=G/ | F2 F/c/ d/^A/ | c ^G ^A/A/8c3/8 G/=G/ | F2 ^G =G/F/ | G3/ C/ ^G/G/ =G/F/ | G2 F/c/ d/^A/ | c ^G ^A/A/4c/4 G/=G/ | F2z2 | z4 | z4 | z4 | z4 | z4 | z4 | z4 |z2 F/c/ d/^A/ | c ^G ^A/A/4c/4 G/=G/ | F2 F/c/ d/^A/ | c ^G ^A/A/4c/4 G/=G/ | F2 ^G =G/F/ | G3/ C/ ^G/G/ =G/F/ | G2 F/c/ d/^A/ | c ^G ^A/A/4c/4 G/=G/ | F2 F/^G/ ^A/=G/- | G/8^G3/4-G/8 F =G/F/ E/D/ | C2 F/^G/ =G/F/ | ^G3/8=G/-G/8 F/^D/ =D/D/ E/E/ | C2 f d/-d/8d3/8- | d/8^d3/4-d/8 d/c/ f/d/ =d/f/ | e2 f/^g/ =g/^a/ | ^g/=g/- g/8f3/4-f/8 d/d/ e/e/ | f4 | z4|]
[V: P2]  z4 | z4 |z2 f/c'3/8d'/8- d'3/8e'/f'/8- | f'3/4f'/8^g/8- g3/4g/8^a/8- a3/8a/4c'/4g/8- g3/8=g/-g/8 | f2z2 | z4 | z4 | z4 | z4 | z4 | z4 | z4 | z4 | z4 | z4 | z4 | z4 | z4 | z4 | z4 |z3/ f/ f/c'/ d'/^a/ | c'- c'/8^g3/4-g/8z/8 ^a3/8a/4c'/4 g/=g/ | f2 f/c'/ d'/^a/ | c'- c'/8^g3/4-g/8 ^a/a/4c'/4 g/=g/ | f2 ^g =g/f/ | g3/ c/ ^g/g/ =g/f/ | g2 f/c'/ d'/^a/ | c' ^g ^a/a/8c'3/8 g/=g/ | f2 f/c'/ d'/^a/ | c'- c'/8^g3/4-g/8 g/8^a3/8a/4c'/4 g/=g/ | f2z/8 f3/8c'/ d'/^a/ | c' ^g ^a/a/8c'3/8 g/=g/ | f2 ^g =g/f/ | g3/ c/ ^g/g/ =g/f/ | g2z/8 f/c'3/8- c'/8d'3/8^a/- | ^a/8c'3/4-c'/8 ^g a/a/4c'/4 g/=g/ | f2 f/c'/ d'/^a/ | c' ^g ^a/a/4c'/4 g/=g/ | f2 f/c'/ d'/^a/ | c' ^g ^a/a/8c'3/8 g/=g/ | f2 ^g- g/8=g3/8f/- | f/8g3/4-g/8 g/c/ ^g/g/ =g/f/ | g2 f/c'/ d'/^a/ | c' ^g ^a/a/8c'3/8 g/=g/ | f4 | z4|]
[V: P3]  z4 | z4 |z3/z3/8 [^G,/8F/8] F,3/8c/8C3/8[^A,/8d/8] F,3/8[D/-A/-][D/8A/8] | [F,3/8^G,3/8C3/8c3/8]=G,/[^G,/8-^G/8-] [G,3/8G3/8]F,/=G,/8 [^A,/D/^A/]A/8c3/8 [C/^G/]=G/ | [F,2^G,2C2F2] [F,G,CF] [F,^A,D] | [F,/8^G,/8C/8]F3/4-F/8 F [^A,=G]z/8 [C3/4-E3/4-][C/8E/8] | [F,/8C/8F/8]^G,3/4-G,/8 F, [F,/F/]C/ =G/[^A,/D/F/] | [F,/C/^G/]=G/ [^G,/F/][F,/^D/] =D/F,/ [C/E/]^A,/ | [F,^G,F] F, [G,/8C/8F/8]F,3/4-F,/8 ^A,/8D3/8F/ | [G,/8^A,/8]^D3/4-D/8 D/[G,/C/] F/8[F,3/8^G,3/8C3/8]D/ [=G,/B,/=D/]F/ | [C2E2] [F,/^G,/F/]C/ [F,^A,=G] | [F,/C/^G/]=G/ [^G,3/8F3/8]F,/-F,/8 [=G,^A,D] [C/E/]A,/ | [F,2^G,2F2] [F,G,CF]z/8 [F,3/4-^A,3/4-D3/4-=G3/4-][F,/8A,/8D/8G/8] | [F,/8^G,/8][C/G/]=G3/8 ^G,/8F3/8F,/ [^A,=G] E/D/ | [F,^G,C] F, [F,G,F] =G | [F,/^G,/C/^G/]=G/ F/[F,/^D/] [F,/=D/]^A,3/8C/8 E/A,3/8F,/8 | [^G,CF] F, [F,G,CF] [^A,D] | [G,3/4^A,3/4^D3/4]=D/4 C/G,/ [F,/^G,/F/]^D/ [=G,B,=D] | [C2E2]z/8 [F,3/4-^G,3/4-C3/4-F3/4-][F,/8G,/8C/8F/8]z/8 [F,3/4-^A,3/4-=G3/4-][F,/8A,/8G/8] | [F,/8^G/8]C/-C/8[=G,/4=G/4] [^G,/F/]F,/ [=G,^A,D] [CE] | [F,2^G,2F2] F,/[C/8F/8]G3/8- G/8F,3/8[D/=G/] | [F,/^G/][C3/8=G3/8]^G,/8 F3/8F,/-F,/8 =G3/8^A,/8F/ E3/8[A,/-D/-][A,/8D/8] | [^G,3/8C3/8]=G,/-G,/8 F,3/4-F,/8F,/8 F3/8C/8^G3/8[D/8-=G/8-] [D3/8G3/8]^A,/8F/ | [F,3/8C3/8^G3/8]=G/F,/8 F/^D/ =D/^A,/ E/[A,/C/] | [F,^G,F] F, [F,/-G,/-C/-F/-][F,/8G,/8C/8F/8]=G/8F/4 [^A,/D/]F/ | [G,3/4^A,3/4^D3/4]=D/4 C/G,/ [F,/8^G,/8]F3/8^D/ [=G,/B,/=D/]F/ | [C3/4E3/4]D/4 C/4^A,/4^G,/4=G,/4 [F,/C/F/][^G,/^G/] [F,/A,/=G/]D/ | [F,/C/^G/][=G,/=G/] [^G,/F/]F,/ [=G,^A,D] [C/E/]A,/ | [F,^G,F] F, [F,/8F/8][G,/C/]G3/8- G/8[F,3/8^A,3/8D3/8^A3/8]=G/ | [F,/C/^G/][=G,/=G/] [^G,/F/]F,/ [^A,=G]z/8 E3/8C/ | [F,^G,CF] F, [F,/G,/C/F/]G/4A/4 [^A,/=G/]F/ | [F,/^G,/C/^G/]=G3/8F/8 [F,/8^G,/8=G/8]F3/8^D/ =D/^A,3/8C/8 E/A,/ | [F,/^G,/C/F/]=G,/ ^G,/F,/ [F,G,CF] D/^A,/ |z/8 [G,3/4-^A,3/4-^D3/4-][G,/8A,/8D/8] [G,/A,/D/][G,/8A,/8D/8][G,3/8C3/8]z/8 [F,3/4-^G,3/4-C3/4-F3/4-][F,/8G,/8C/8F/8] [=G,/B,/=D/]F/ | [C3/4E3/4]D/4 C/4^A,/4^G,/4=G,/4 [F,/C/F/]^G/ [A,/=G/][D/A/] | [F,/8C/8^G/8][G3/4-^A3/4-][G/8A/8]z/8 [G,3/4-F3/4-][G,/8F/8]z/8 [=G,3/4-A,3/4-D3/4-][G,/8A,/8D/8] [G,CE] | [F,^G,CF] F, [F,3/G,3/C3/F3/] [^A,/=G/] | [F/8^G/8][F,3/4-C3/4-][F,/8C/8] [F,C] [^A,=G] [CE] | [F,^G,CF] F, [F,3/G,3/C3/F3/] [F,/C/=G/] | [F,CF^G]z/8 F3/8^D/ =D/^A,/ [C/E/]A,/ | [F,^G,CF] F, [F,3/8G,3/8C3/8F3/8]F,/8=G/8F/4[^A,/8-D/8-] [A,/D/]F3/8^D/8 | [G,^A,F]z/ [G,/C/] [F,/^G,/C/F/]^D/ [=G,B,=D] | [C2E2] [F,^G,CF] [F,/8^A,/8]=G3/4-G/8 | [F,/C/F/^G/][=G,/=G/] [^G,/F/]F,/ [=G,^A,D] [CE] | [F,^G,CF] F,/8G,3/4-G,/8 G,2 | ^G,z3|]
[V: P4]  z4 | z4 | z4 |z2z3/4z/8 C,/8- C, | z4 |z2 ^A,, C, |z/z/8 C,3/8z2 ^A,, |z2 ^A,, C, |z/ C,/z2 ^A,, |z/8 ^D,3/4-D,/8 D,/D,/8E,3/8z2 | C,2z2 |z3 C,- | C,z3 |z2 ^A,, C, |z/ C,/z2 ^A,, |z2 ^A,, C, |z3/8 C,/-C,/8z2 ^A,, | ^D,z/ E,/z2 | C,2z2 |z3 [B,,C,] | z4 |z2 ^A,,3/4-A,,/8C,/8- C, |z3/ E,/z3/4z/8 ^A,,/8- A,, |z2 ^A,, C, |z/ C,/z2 ^A,, | ^D,z/ E,/z2 | C,z3 |z3 C, |z3/8 ^C,/-C,/8z3 |z2 ^A,, C,- | C,/C,/z2 ^A,, |z2 ^A,,3/4-A,,/8C,/8- C, |z3 ^A,, |z/8 ^D,3/4-D,/8z/z/8 E,3/8z2 | C,z3 |z3 C, |z/ C,/z3 |z2 ^A,, C, |z/ C,/z3 |z2 ^A,, C, |z/ C,/z3/z3/8 ^A,,/8- A,, | ^D,z/ E,/z2 | C,2z2 |z3 C,/C,/ |z/ C,/ F,,3 | z4|]
[V: P5]  z4 | z4 | z4 | z4 | z4 | z4 | z4 | z4 | z4 | z4 | z4 | z4 | z4 | z4 | z4 | z4 | z4 | z4 | z4 | z4 |z2z/8 F,3/4-F,/8 F, |z/8 F,3/4-F,/8 F, ^A,, C, | F,2 F,3/- F,3/8F,/8- | F,3/ F,3/8^A,,/8- A,, C, | F,2 F,z/8 ^A,,3/4-A,,/8 | ^D,2 F, G, | C,2 F,2 | F, ^G,3/4-G,/8=G,/8- G,3/4G,/8C,/8- C, | F,2z/8 F,3/4-F,/8 F,/F,/ | F,2 ^A,, C, |z/8 F,3/8C,/ ^G,,/=G,,/ F,, ^A,, | F, F,, ^A,, C, | F,2 F, ^A,,/A,,/ | ^D,3/- D,/8C,/8E,/4 F, G,/G,/ | C,2 F,3/ F,/ | F,/G,/ ^G, =G, C,/C,/ | F,/C,/ F,, F,,2 |z/ F,,/4G,,/4 ^G,,3/8F,,/^A,,/8- A,, C, | F,/C,/ F,, F,, ^A,, | F, F,, ^A,, C, | F,/C,/ F,, F, ^A,,3/8A,,/^D,/8- | ^D, D,3/8E,/-E,/8 F,/F,/ G,/G,/ | C,2 F,3/ F,/ | F,3/4G,/8^G,/8- G,3/8F,/-F,/8 =G,/G,/ C,/C,/ | F,3/8C,/-C,/8 F,,3 | z4|]
[V: P6]  z4 | z4 | z4 | z4 | z4 | z4 | z4 | z4 | z4 | z4 | z4 | z4 |z2z/8 ^C3/4-C/8 C |z/8 ^C3/4-C/8 C/C/8C/8C/4 C2 |z/ ^C/4C/8C/8z/ C/ Cz | ^Cz/ C/4C/4 Cz |z/ ^C/4C/8C/8z3/8 C/-C/8 Cz |z/ ^C/ C/C/ Cz |z/ ^C/ Cz2 |z/ ^C/4C/4 Cz/ C/4C/4 C/C/ | ^C/C/4C/4 C/C/z/8 C3/4-C/8 C |z/ ^C/4C/8C/8z/ C/ Cz |z/ ^C/4C/8C/8z/ C/ Cz |z/z/8 ^C/4C/8z3/8 C/-C/8 Cz |z/ ^C/8C/4C/8z3/ C/4C/4 C |z/ ^C/4C/4 Cz/ C/4C/4 C |z/ ^C/4C/4 C/C/ Cz |z/ ^C/4C/4 C Cz |z/ ^C/ Cz/8 ^F,3/4-F,/8 F, | ^F,zz/8 F,3/4-F,/8 F, | ^F,z/8 F,/8F,/8F,/8F,/8F,/8F,/8F,/8 F,/8F,3/4-F,/8 F, |z2 ^F,z |z ^F,/8F,/8F,/8F,/8F,/8F,/8F,/8F,/8 F,z |zz/8 ^F,3/4-F,/8z/8 F,3/4-F,/8z |zz/8 ^F,/8F,/8F,/8F,/8F,/8F,/8F,/8 F,z |z ^F,z/8 F,3/4-F,/8z |z/ ^C/4C/4 [^F,/8C/8]F,/8F,/8F,/8[F,/8C/8]F,/8F,/8F,/8 [F,C]z/z/8 C/8C/4 | ^C/C/4C/4 [^F,/8C/8]F,/8F,/8F,/8F,/8[F,/8C/8]F,/8F,/8 F,/8[F,3/4-C3/4-][F,/8C/8]z/ C/4C/4 | ^C/C/4C/4 [^F,/8C/8]F,/8F,/8F,/8F,/8[F,/8C/8]F,/8F,/8 F,/8[F,3/4-C3/4-][F,/8C/8]z/ C/4C/4 | ^C/-C/8C/8C/4 C/8^F,/8F,/8F,/8F,/8[F,/8C/8]F,/8F,/8 F,/8F,/8[F,3/4C3/4]z/ C/4C/4 | ^C/C/4C/4 [^F,/8C/8]F,/8F,/8F,/8[F,/8C/8]F,/8F,/8F,/8 F,/8[F,3/4-C3/4-][F,/8C/8]z/ C/4C/4 | ^C/C/8C/4C/8 ^F,/8F,/8F,/8F,/8[F,/8C/8]F,/8F,/8F,/8 F,/8[F,3/4-C3/4-][F,/8C/8]z/ C/8C3/8 | ^C/C/4C/4 [^F,/8C/8]F,/8F,/8F,/8[F,/8C/8]F,/8F,/8F,/8 [F,C]z/ C/4C/4 | ^C/C/4C/4 [^F,/8C/8]F,/8F,/8F,/8[F,/8C/8]F,/8F,/8F,/8 F,/8[F,3/4-C3/4-][F,/8C/8]z3/8 C/4C/4C/8 |z3/8 ^C/4C/4C/8 ^F,/8F,/8F,/8F,/8C/8F,/8F,/8F,/8 F,/8[F,/8C/8]F,/8F,/8F,/8F,/8[F,/8C/8]F,/8 [F,/8C/8]F,/8[F,/8C/8]F,/8F,/8F,/8F,/8[F,/8C/8] | [^F,^C]z3|]

